img/work/logo-mdc.svg

<?xml version="1.0" encoding="UTF-8" standalone="no"?>
<svg width="80px" height="25px" viewBox="0 0 80 25" version="1.1" xmlns="http://www.w3.org/2000/svg" xmlns:xlink="http://www.w3.org/1999/xlink">
    <!-- Generator: Sketch 41 (35326) - http://www.bohemiancoding.com/sketch -->
    <title>Group 3</title>
    <desc>Created with Sketch.</desc>
    <defs></defs>
    <g id="Content-real" stroke="none" stroke-width="1" fill="none" fill-rule="evenodd">
        <g id="Work-Copy" transform="translate(-898.000000, -2036.000000)" fill="#FFFFFF">
            <g id="Group-Copy-25" transform="translate(840.000000, 1980.000000)">
                <g id="Group-3" transform="translate(58.000000, 56.000000)">
                    <path d="M4.01817073,24.1044512 L4.81329268,10.2794512 C4.81329268,10.2794512 5.48585366,5.38554878 12.8267073,5.32396341 L12.0913415,17.9879878 L15.7023171,17.9257927 L16.5578049,5.32396341 C16.5578049,5.32396341 22.92,4.65140244 24.0815854,10.6459146 L23.4090244,24.1044512 L27.0181707,24.1044512 L27.8132927,10.1562805 C27.8132927,10.1562805 27.6303659,3.00018293 18.3937805,1.71603659 C11.7254878,1.65445122 9.76756098,1.71603659 9.76756098,1.71603659 C9.76756098,1.71603659 2.61085366,1.59286585 1.14256098,9.42335366 L0.259634146,24.1044512 L4.01817073,24.1044512 Z" id="Fill-276"></path>
                    <path d="M32.0955488,1.68871951 L47.8786585,1.68871951 L45.3085366,5.2625 L35.6437195,5.2625 L34.6656707,20.4338415 L42.1896341,20.4338415 C42.1896341,20.4338415 42.0878049,23.3289634 42.2908537,24.1045732 L30.6583537,24.1045732 L32.0955488,1.68871951 Z" id="Fill-278"></path>
                    <path d="M49.5609756,5.50804878 L52.5573171,3.42878049 C52.5573171,3.42878049 57.1457317,5.77817073 56.3817073,13.2135366 C56.3817073,13.2135366 56.5036585,22.8196341 44.575,24.1043902 C44.6060976,23.1860976 44.575,22.3915854 44.575,22.3915854 C44.575,22.3915854 44.7585366,20.6184146 46.2268293,20.2818293 C47.6341463,19.7921951 51.3652439,18.9037805 52.527439,13.459878 C52.527439,13.459878 53.5371951,8.78060976 49.622561,6.15012195 C49.652439,5.93609756 49.5609756,5.50804878 49.5609756,5.50804878" id="Fill-279"></path>
                    <path d="M48.827439,5.01914634 L52.527439,2.38804878 C52.527439,2.38804878 52.1286585,0.492317073 49.9884146,0.0642682927 C48.9182927,1.56243902 45.2780488,6.08865854 45.2780488,6.08865854 C45.2780488,6.08865854 45.0957317,7.16 45.6457317,7.1295122 C46.1963415,6.76182927 47.6646341,5.72097561 47.6646341,5.72097561 C47.6646341,5.72097561 48.3371951,7.22097561 47.5115854,8.35329268 C47.2054878,8.7502439 46.5628049,9.94292683 43.5359756,9.91182927 C43.0158537,9.88256098 38.075061,10.3410976 37.8159146,15.1721951 C37.797622,15.4929268 37.9994512,18.5380488 41.5781098,18.5069512 C42.4036585,18.5380488 44.3609756,18.5069512 44.3609756,18.5069512 C44.3609756,18.5069512 42.495122,20.0978049 42.8018293,22.1167073 C43.1073171,24.1356098 43.4128049,24.4093902 43.6268293,24.4093902 C43.8414634,24.2264634 43.6871951,22.1776829 43.9012195,21.7490244 C44.1164634,21.3203659 44.3310976,20.4337805 46.5018293,18.262439 C46.7780488,17.9258537 47.4493902,16.5191463 46.1042683,16.1520732 C44.7585366,15.7843902 41.7305488,15.7843902 41.8531098,14.1941463 C41.8531098,14.1941463 42.0055488,12.6343902 44.575,11.5331707 C45.7067073,11.105122 48.0932927,9.45329268 48.5207317,8.13865854 C48.9487805,6.82280488 49.070122,5.78317073 48.827439,5.01914634" id="Fill-280"></path>
                    <path d="M41.670061,6.24164634 C41.670061,6.24164634 42.6969512,5.3672561 44.4219512,6.51664634 C45.1560976,7.00628049 45.5536585,8.56664634 44.3609756,9.1477439 C43.1682927,9.72884146 42.097561,8.99469512 41.670061,8.6270122 C41.2414024,8.26176829 41.0328659,6.69042683 41.670061,6.24164634" id="Fill-281"></path>
                    <path d="M79.2945122,1.68871951 L78.9237805,5.2625 L69.0134146,5.2625 C69.0134146,5.2625 63.9664634,5.75213415 63.752439,13.7667683 C63.752439,13.7667683 62.9579268,20.4637195 68.9530488,20.4637195 L78.1286585,20.4637195 L77.8536585,24.1045732 L68.8006098,24.1045732 C68.8006098,24.1045732 60.0823171,24.9911585 59.6536585,14.5612805 C59.6536585,14.5612805 59.2219512,2.73079268 69.2585366,1.68871951 C73.1737805,1.65396341 79.2945122,1.68871951 79.2945122,1.68871951" id="Fill-282"></path>
                </g>
            </g>
        </g>
    </g>
</svg>

<svg width="80" height="25" viewBox="0 0 80 25" xmlns="http://www.w3.org/2000/svg"><title>Group 3</title><g fill="#FFF" fill-rule="evenodd"><path d="M4.018 24.104l.795-13.825s.673-4.893 8.014-4.955l-.736 12.664 3.611-.062.856-12.602s6.362-.673 7.524 5.322l-.673 13.458h3.61l.794-13.948S27.63 3 18.393 1.716c-6.668-.062-8.625 0-8.625 0S2.61 1.593 1.143 9.423L.26 24.104h3.758zM32.096 1.689h15.783l-2.57 3.574h-9.665l-.978 15.17h7.524s-.102 2.896.1 3.672H30.659l1.438-22.416zM49.561 5.508l2.996-2.08s4.589 2.35 3.825 9.786c0 0 .122 9.606-11.807 10.89.031-.918 0-1.712 0-1.712s.184-1.774 1.652-2.11c1.407-.49 5.138-1.378 6.3-6.822 0 0 1.01-4.68-2.904-7.31.03-.214-.062-.642-.062-.642"/><path d="M48.827 5.02l3.7-2.632S52.13.492 49.988.064c-1.07 1.498-4.71 6.025-4.71 6.025s-.182 1.071.368 1.04c.55-.367 2.019-1.408 2.019-1.408s.672 1.5-.153 2.632c-.307.397-.95 1.59-3.976 1.559-.52-.03-5.46.43-5.72 5.26-.018.32.183 3.366 3.762 3.335.826.031 2.783 0 2.783 0s-1.866 1.59-1.56 3.61c.306 2.019.612 2.292.826 2.292.214-.183.06-2.231.274-2.66.215-.429.43-1.315 2.6-3.487.277-.336.948-1.743-.397-2.11-1.345-.368-4.373-.368-4.25-1.958 0 0 .152-1.56 2.721-2.66 1.132-.429 3.518-2.08 3.946-3.395.428-1.316.55-2.356.306-3.12"/><path d="M41.67 6.242s1.027-.875 2.752.275c.734.49 1.132 2.05-.061 2.63-1.193.582-2.263-.152-2.69-.52-.43-.365-.638-1.937 0-2.385M79.295 1.689l-.371 3.574h-9.91s-5.048.49-5.262 8.504c0 0-.794 6.697 5.201 6.697h9.176l-.275 3.64H68.8s-8.719.887-9.147-9.543c0 0-.432-11.83 9.605-12.872 3.915-.035 10.036 0 10.036 0"/></g></svg>
